svgs/sharp-regular/square-x.svg

<svg xmlns="http://www.w3.org/2000/svg" viewBox="0 0 448 512"><!--! Font Awesome Pro 6.6.0 by @fontawesome - https://fontawesome.com License - https://fontawesome.com/license (Commercial License) Copyright 2024 Fonticons, Inc. --><path d="M48 80l0 352 352 0 0-352L48 80zM0 32l48 0 352 0 48 0 0 48 0 352 0 48-48 0L48 480 0 480l0-48L0 80 0 32zm349.1 96L253.9 256l95.2 128-59.8 0L224 296.2 158.7 384l-59.8 0 95.2-128L98.9 128l59.8 0L224 215.8 289.3 128l59.8 0z"/></svg>

<svg xmlns="http://www.w3.org/2000/svg" viewBox="0 0 448 512"><!--! Font Awesome Pro 6.4.0 by @fontawesome - https://fontawesome.com License - https://fontawesome.com/license (Commercial License) Copyright 2023 Fonticons, Inc. --><path d="M48 80V432H400V80H48zM0 32H48 400h48V80 432v48H400 48 0V432 80 32zm349.1 96L253.9 256l95.2 128H289.3L224 296.2 158.7 384H98.9l95.2-128L98.9 128h59.8L224 215.8 289.3 128h59.8z"/></svg>
